app/img/step-1/var-3.svg

<svg width="90" height="90" viewBox="0 0 90 90" fill="none" xmlns="http://www.w3.org/2000/svg">
<g clip-path="url(#clip0)">
<path d="M34.2829 84.5632C29.9199 84.5632 26.3713 81.0139 26.3713 76.6516C26.3713 72.2887 29.9199 68.7401 34.2829 68.7401C38.6451 68.7401 42.1937 72.2887 42.1937 76.6516C42.1937 81.0139 38.6451 84.5632 34.2829 84.5632Z" fill="#697C86"/>
<path d="M34.2829 79.2883C32.8279 79.2883 31.6455 78.1066 31.6455 76.6516C31.6455 75.1966 32.8279 74.0142 34.2829 74.0142C35.7379 74.0142 36.9196 75.1966 36.9196 76.6516C36.9196 78.1066 35.7379 79.2883 34.2829 79.2883Z" fill="#465A61"/>
<path d="M71.554 84.5632C67.1918 84.5632 63.6425 81.0139 63.6425 76.6516C63.6425 72.2887 67.1918 68.7401 71.554 68.7401C75.9163 68.7401 79.4656 72.2887 79.4656 76.6516C79.4656 81.0139 75.9163 84.5632 71.554 84.5632Z" fill="#596C76"/>
<path d="M71.554 79.2883C70.099 79.2883 68.9166 78.1066 68.9166 76.6516C68.9166 75.1966 70.099 74.0142 71.554 74.0142C73.009 74.0142 74.1907 75.1966 74.1907 76.6516C74.1907 78.1066 73.009 79.2883 71.554 79.2883Z" fill="#3B4A51"/>
<path d="M79.8871 66.1027C79.8871 67.5796 78.7267 68.7401 77.2504 68.7401H26.7936C22.4156 68.7401 18.8821 65.2059 18.8821 60.8285C18.8821 56.8206 21.8353 53.4972 25.7382 53.0227C26.0548 52.917 26.4242 52.917 26.7936 52.917C27.426 52.917 28.0591 53.1814 28.4814 53.603L26.8987 58.1918C26.8465 58.1918 26.8465 58.1918 26.7936 58.1918C25.3166 58.1918 24.1562 59.3516 24.1562 60.8285C24.1562 62.3055 25.3166 63.4659 26.7936 63.4659H77.2504C78.7267 63.4659 79.8871 64.6257 79.8871 66.1027Z" fill="#465A61"/>
<path d="M17.5012 16.0037C17.6688 16.2145 20.5087 17.4971 23.3679 18.753C23.3782 18.5257 23.4071 18.3005 23.3556 18.0684L21.0354 7.51946C20.7697 6.3089 19.6985 5.44922 18.4598 5.44922H2.63741C1.17966 5.44922 0 6.62888 0 8.08663C0 9.54369 1.17966 10.7233 2.63741 10.7233H16.3401L17.5012 16.0037Z" fill="#465A61"/>
<path d="M79.8872 66.1027C79.8872 67.5797 78.7267 68.7401 77.2504 68.7401H52.4433V63.4659H77.2504C78.7267 63.4659 79.8872 64.6257 79.8872 66.1027Z" fill="#3B4A51"/>
<path d="M89.4864 17.0528C88.9591 16.3669 88.2203 15.9974 87.3764 15.9974H17.5101L25.7382 53.0228L26.8987 58.1918H76.8281C77.9885 58.1918 79.0432 57.4001 79.3598 56.2926L89.908 19.373C90.1195 18.582 89.9609 17.6852 89.4864 17.0528Z" fill="#FDBF00"/>
<path d="M89.9081 19.373L79.3598 56.2926C79.0433 57.4001 77.9886 58.1918 76.8282 58.1918H52.4433V15.9974H87.3764C88.2203 15.9974 88.9591 16.3669 89.4865 17.0528C89.961 17.6852 90.1196 18.582 89.9081 19.373Z" fill="#FF9F00"/>
</g>
<defs>
<clipPath id="clip0">
<rect width="90" height="90" fill="white"/>
</clipPath>
</defs>
</svg>

<svg width="90" height="90" fill="none" xmlns="http://www.w3.org/2000/svg"><g clip-path="url(#clip0)"><path d="M34.283 84.563c-4.363 0-7.912-3.55-7.912-7.911 0-4.363 3.549-7.912 7.912-7.912 4.362 0 7.91 3.549 7.91 7.912 0 4.362-3.548 7.911-7.91 7.911z" fill="#697C86"/><path d="M34.283 79.288a2.639 2.639 0 01-2.638-2.636 2.64 2.64 0 012.638-2.638 2.638 2.638 0 010 5.274z" fill="#465A61"/><path d="M71.554 84.563c-4.362 0-7.912-3.55-7.912-7.911 0-4.363 3.55-7.912 7.912-7.912s7.912 3.549 7.912 7.912c0 4.362-3.55 7.911-7.912 7.911z" fill="#596C76"/><path d="M71.554 79.288a2.639 2.639 0 01-2.637-2.636 2.64 2.64 0 012.637-2.638 2.638 2.638 0 010 5.274z" fill="#3B4A51"/><path d="M79.887 66.103a2.612 2.612 0 01-2.637 2.637H26.794a7.901 7.901 0 01-7.912-7.911c0-4.008 2.953-7.332 6.856-7.806.317-.106.686-.106 1.056-.106.632 0 1.265.264 1.687.686L26.9 58.192h-.105a2.611 2.611 0 00-2.638 2.636 2.612 2.612 0 002.638 2.638H77.25a2.611 2.611 0 012.637 2.637zM17.501 16.004c.168.21 3.008 1.493 5.867 2.749.01-.227.04-.453-.012-.685L21.036 7.52a2.635 2.635 0 00-2.576-2.07H2.637A2.636 2.636 0 000 8.087a2.636 2.636 0 002.637 2.636H16.34l1.161 5.28z" fill="#465A61"/><path d="M79.887 66.103a2.612 2.612 0 01-2.637 2.637H52.443v-5.274H77.25a2.611 2.611 0 012.637 2.637z" fill="#3B4A51"/><path d="M89.486 17.053c-.527-.686-1.266-1.056-2.11-1.056H17.51l8.228 37.026 1.16 5.169h49.93c1.16 0 2.215-.792 2.532-1.9l10.548-36.919c.212-.791.053-1.688-.422-2.32z" fill="#FDBF00"/><path d="M89.908 19.373L79.36 56.293c-.317 1.107-1.371 1.899-2.532 1.899H52.443V15.997h34.933c.844 0 1.583.37 2.11 1.056.475.632.634 1.529.422 2.32z" fill="#FF9F00"/></g><defs><clipPath id="clip0"><path fill="#fff" d="M0 0h90v90H0z"/></clipPath></defs></svg>
